X: 158
T: The Beauties of Ireland
T: Jig, D
L: 1/16
M: 6/8
K: D
|: F4D2 D2E2D2| D2E2D2 D2F2A2| E4A,2 A,2B,2A,2| A,2B,2A,2 A,2C2E2| 
F4D2 D2E2D2| D2E2D2 D2F2A2| B2c2d2 e2d2c2| [1 d4B2 A4G2:| [2 d6 d4e2||
|: f4d2 d2c2d2| g2a2g2 f2g2f2| e2c2A2 A2B2A2| e2c2A2 A2c2e2| 
f4d2 d2c2d2| g2a2g2 f2e2d2| c2B2A2 A2B2c2| [1 d6 d4e2:| [2 d4B2 A4G2|| 
D: Morgan MacQuarrie, Kenloch Ceilidh
